X:1
T:Title
%%score { ( 1 4 ) | ( 2 3 5 ) }
L:1/8
M:3/4
K:G
V:1 treble nm="Grand Piano"
V:4 treble 
V:2 bass 
V:3 bass 
V:5 bass 
V:1
 z2 z2[Q:1/4=100] D2 | BB B2 D2 | EE A2 [EG]2 | FF D2 c2 |[M:2/4] B4 |[M:1/4] B2 | %6
[M:3/4] dd B2 [=Fd]2 | [Ed][Ec] [CE]2 [EG]2 | [DG][DF] [Fc]2 [CDF]2 |[M:2/4] [G,B,DG]4 | %10
[M:1/4] [B,DG]2 |[M:3/4] [A,DF]4 [DG]2 | [CDA]4 [CD]2 | [B,D]2 [DG]2 A2 | B4 Bc | d2 B2 G2 | %16
 E2 A2 GE | D6- | D4 z2 | [B,DG]4 FG | [CDA]4 D2 | A3 B cd | B4 Bc | d2 B2 [G,DG]2 | %24
 [G,CE]2 [CEA]2 [CDF]2 | [B,DG]6- |[M:2/4] [B,DG]4 |] %27
V:2
 z2 z2 [G,B,]2 | [G,D][G,D] [G,D]2 [B,,G,]2 | [C,G,C][C,G,C] [C,E,C]2 [C,A,]2 | %3
 [D,A,D][D,A,D] [F,A,]2 [D,F,D]2 |[M:2/4][K:treble] [G,D]4 |[M:1/4] [G,D]2 | %6
[M:3/4] [G,B,G][G,B,G] [G,DG]2[K:bass] [B,,G,]2 | [C,G,][C,G,] [C,G,]2 [C,C]2 | %8
 [D,B,][D,A,] [D,A,]2 D,2 |[M:2/4] G,,4 |[M:1/4] G,2 |[M:3/4] D,D, D,2 B,2 | D,D, D,2 F,2 | %13
 G,4 z2 | z2 z2[K:treble] [G,G]2 | [G,G]4 z2 | [A,^C]4[K:bass] A,,-[A,,G,] | %17
 [D,F,][D,F,] [D,F,]2 [D,G,]2 | [D,A,]4 [D,C]2 | G,,G,, G,,2 A,B, | D,D, D,2 F,2 | F,4 .A,2 | %22
 z2 z2 [G,D]2 | D4 z2 | C,2 A,,2 D,2 | G,,6- |[M:2/4] G,,4 |] %27
V:3
 x6 | x6 | x6 | x6 |[M:2/4][K:treble] x4 |[M:1/4] x2 |[M:3/4] x4[K:bass] x2 | x6 | x6 |[M:2/4] x4 | %10
[M:1/4] x2 |[M:3/4] x6 | x6 | z G,, B,,2 [D,F,D]2 | [G,D]4[K:treble] z A, | B,2 D2 [G,B,D]2 | %16
 z2 z2[K:bass] .E,2 | x6 | x6 | x6 | x6 | z D, z G, [D,D]-[D,B,D] | [G,D]4 z A, | %23
 [G,B,]2 G,2 B,,2 | x6 | x6 |[M:2/4] x4 |] %27
V:4
 x6 | x6 | x6 | x6 |[M:2/4] x4 |[M:1/4] x2 |[M:3/4] x6 | x6 | x6 |[M:2/4] x4 |[M:1/4] x2 | %11
[M:3/4] x6 | x6 | x6 | x6 | x6 | z2 z2 ^C2 | z A, A,2 B,2 | C4 D2 | z2 z2 D2 | x6 | D4 z2 | x6 | %23
 x6 | x6 | x6 |[M:2/4] x4 |] %27
V:5
 x6 | x6 | x6 | x6 |[M:2/4][K:treble] x4 |[M:1/4] x2 |[M:3/4] x4[K:bass] x2 | x6 | x6 |[M:2/4] x4 | %10
[M:1/4] x2 |[M:3/4] x6 | x6 | x6 | x4[K:treble] x2 | x6 | x4[K:bass] x2 | x6 | x6 | x6 | x6 | %21
 z2 D,2 z2 | x6 | x6 | x6 | x6 |[M:2/4] x4 |] %27

